!!!COA:	Josquin des Prez
!!!CDT:	~1450-1521/08/27
!!!COM2: La Rue, Pierre de
!!!CDT2: ~1452///-1518/11/20/
!!!OPR:	Missa Sub tuum presidium
!!!ONM:	3
!!!OTL:	Credo
!!!AGN:	Mass; Credo
!!!SCT:	NJE 4.5
!!!SCA:	New Josquin Edition 4.5
!!!voices:	4
!!!voices-OPR:	4
**kern	**kern	**kern	**kern
*staff4	*staff3	*staff2	*staff1
*Ivox	*Ivox	*Ivox	*Ivox
*I"Bassus	*I"Tenor	*I"Altus	*I"Superius
*I'B	*I'T	*I'A	*I'S
*>[A,B,C]	*>[A,B,C]	*>[A,B,C]	*>[A,B,C]
*>A	*>A	*>A	*>A
*clefF4	*clefGv2	*clefGv2	*clefG2
*k[]	*k[]	*k[]	*k[]
*M2/1	*M2/1	*M2/1	*M2/1
*met(C)	*met(C)	*met(C)	*met(C)
=1-	=1-	=1-	=1-
0r	0r	1.e	1e
.	.	.	2g/
.	.	2c\	2a/
=2	=2	=2	=2
0r	0r	2d\	2b\
.	.	1e	2e/
.	.	.	2g/
.	.	2A/	2a/
=3	=3	=3	=3
0r	0r	2r	2b\
.	.	2A/	1cc
.	.	2c\	.
.	.	2d\	4b\
.	.	.	4a/
=4	=4	=4	=4
0r	1E	1e	1g
.	2G/	[1e	1r
.	2A/	.	.
=5	=5	=5	=5
0E	2B\	1e]	0r
.	2E/	.	.
.	2B\	1r	.
.	[2c\	.	.
=6	=6	=6	=6
2E\	2c\]	1r	0r
2D\	1B	.	.
1C	.	1e	.
.	2A/	.	.
=7	=7	=7	=7
1BB	1B	2d\	1r
.	.	2B\	.
1r	1r	2d\	1a
.	.	2A/	.
=8	=8	=8	=8
0r	1r	2.e\	2g/
.	.	.	2e/
.	.	4B\	.
.	1r	1B	2g/
.	.	.	2d/
=9	=9	=9	=9
1r	1A	0r	2.a/
.	.	.	4e/
1E	2G/	.	1e
.	2E/	.	.
=10	=10	=10	=10
2D\	2F/	1r	0r
2BB/	2G/	.	.
2C/	2.A/	2.e\	.
2AA/	.	.	.
.	4E/	4e\	.
=11	=11	=11	=11
1E	1E	2e\	1r
.	.	2e\	.
1BB	1r	4d\	2.b\
.	.	4c\	.
.	.	4B\	.
.	.	4A/	4b\
=12	=12	=12	=12
0r	0r	2G/	2b\
.	.	1d	2b\
.	.	.	4a/
.	.	.	4g/
.	.	2c\	4f/
.	.	.	4e/
=13	=13	=13	=13
0r	0r	2d\	2d/
.	.	1B	1dd
.	.	2A/	2cc\
=14	=14	=14	=14
0r	0r	2B\	2dd\
.	.	2.d\	1b
.	.	2c\	.
.	.	.	2a/
.	.	8B/L	.
.	.	8A/J	.
=15	=15	=15	=15
1r	1r	2.G/	2b\
.	.	.	2.dd\
.	.	4A/	.
1r	2r	1F	.
.	.	.	2cc\
.	[2c\	.	.
.	.	.	8b/L
.	.	.	8a/J
=16	=16	=16	=16
1E	2c\]	1E	1g
.	4B\	.	.
.	4G/	.	.
2F\	2A/	1r	1r
4E\	2G/	.	.
4C/	.	.	.
=17	=17	=17	=17
2D\	2B\	0r	1r
2C/	2c\	.	.
2E\	4B\	.	1r
.	4G/	.	.
2F\	2A/	.	.
=18	=18	=18	=18
4E\	2G/	0r	2r
4C/	.	.	.
2D\	2d\	.	2b\
1C	1e	.	1cc
=19	=19	=19	=19
1r	4d\	1r	4b\
.	4B\	.	4g/
.	2c\	.	2a/
2r	[1B	1r	1d
2G\	.	.	.
=20	=20	=20	=20
2G\	1B]	2r	2r
2E\	.	2e\	2g/
2G\	2r	2d\	2g/
2G\	2B\	2d\	2g/
=21	=21	=21	=21
0E	2B\	1e	2g/
.	2B\	.	2g/
.	2B\	2B\	2e/
.	[2c\	[2e\	[2g/
=22	=22	=22	=22
2C/	2c\]	2e\]	4g/]
.	.	.	4a/
2D\	1B	2.d\	4b\
.	.	.	4cc\
2BB/	.	.	2dd\
.	.	4c\	.
[2E\	2B\	4B\	[2g/
.	.	4A/	.
=23	=23	=23	=23
1E]	2c\	2.G/	4g/]
.	.	.	4a/
.	2B\	.	4b\
.	.	4F/	8a/L
.	.	.	8b/J
2C/	2E/	1A	2cc\
2D\	2F/	.	2a/
=24	=24	=24	=24
2BB/	2D/	2B\	2dd\
2E\	2.G/	2G/	2b\
2C/	.	1A	2cc\
.	4E/	.	.
2D\	2F/	.	2a/
=25	=25	=25	=25
2BB/	2D/	2B\	2dd\
2E\	2G/	2G/	2b\
2C/	2E/	1A	2cc\
2D\	2A/	.	2a/
=26	=26	=26	=26
1BB	2.A/	1r	2.dd\
.	4G/	.	4b\
[1AA	1A	2r	[1cc
.	.	[2e\	.
=27	=27	=27	=27
1AA]	2r	4e\]	2cc\]
.	.	4e\	.
.	1A	2e\	2a/
1r	.	2f\	1a
.	2A/	[2e\	.
=28	=28	=28	=28
0r	2A/	4e\]	0r
.	.	4d\	.
.	2G/	2B\	.
.	2A/	2c\	.
.	2A/	[2A/	.
=29	=29	=29	=29
0r	2F/	2A/]	0r
.	2D/	2d\	.
.	2.E/	2.d\	.
.	4E/	4c\	.
=30	=30	=30	=30
0r	1D	2d\	0r
.	.	2f\	.
.	2r	2e\	.
.	2G/	2d\	.
=31	=31	=31	=31
0r	2B\	2d\	0r
.	2B\	1g	.
.	1A	.	.
.	.	2f\	.
=32	=32	=32	=32
1r	2E/	2.g\	1r
.	2.G/	.	.
.	.	4f\	.
1r	.	4e\	2r
.	4D/	4d\	.
.	2F/	[2d\	[2a/
=33	=33	=33	=33
2.AA/	1E	2d\]	4a/]
.	.	.	4a/
.	.	2c\	2a/
4AA/	.	.	.
2D\	1D	1d	2b\
[2D\	.	.	[2a/
=34	=34	=34	=34
4D\]	1r	0r	4a/]
4C/	.	.	4g/
2C/	.	.	2e/
2D\	2r	.	2f/
2GG/	2G/	.	[2d/
=35	=35	=35	=35
2GG/	2G/	0r	2d/]
2GG/	2G/	.	2g/
2C/	2G/	.	2g/
[2C/	[2c\	.	2g/
=36	=36	=36	=36
4C/]	4c\]	0r	2g/
4BB/	4G/	.	.
2GG/	2B\	.	2g/
1D	1A	.	2.g/
.	.	.	4f#i/
=37	=37	=37	=37
1GG	2G/	0r	2g/
.	2G/	.	2b\
1r	2c\	.	2a/
.	2c\	.	2g/
=38	=38	=38	=38
0r	2c\	0r	2.cc\
.	2.c\	.	.
.	.	.	4b\
.	.	.	4a/
.	4G/	.	4g/
.	2B\	.	[2g/
=39	=39	=39	=39
1r	1A	1r	2g/]
.	.	.	2f#i/
1G	1G	2r	[1g
.	.	2d\	.
=40	=40	=40	=40
2G\	0r	2d\	1g]
1G	.	1d	.
.	.	.	2r
2G\	.	2e\	2g/
=41	=41	=41	=41
2G\	1r	2.e\	2g/
2G\	.	.	1g
.	.	4d\	.
2E\	2r	[1e	.
2AA/	2c\	.	2a/
=42	=42	=42	=42
2E\	2B\	0e_	2.a/
2E\	2B\	.	.
.	.	.	4g/
1AA	1A	.	2a/
.	.	.	2cc\
=43	=43	=43	=43
2r	2r	1e]	2b\
2AA/	2A/	.	1a
2E\	2c\	1r	.
2E\	2B\	.	2g/
=44	=44	=44	=44
2C/	2A/	1r	2a/
2D\	2A/	.	2f/
4C/	2.A/	1r	4g/
4AA/	.	.	4f/
2BB/	.	.	4e/
.	4G/	.	4d/
=45	=45	=45	=45
[0AA	[0A	1e	1c
.	.	2e\	2r
.	.	2e\	2cc\
=46	=46	=46	=46
0AA_	1A]	2f\	2cc\
.	.	2.e\	2cc\
.	2r	.	2a/
.	.	4d\	.
.	2c\	4c\	2cc\
.	.	4B\	.
=47	=47	=47	=47
0AA]	2c\	1A	4cc\
.	.	.	4b\
.	2c\	.	4a/
.	.	.	4g/
.	2A/	2r	2f/
.	[2c\	[2e\	2e/
=48	=48	=48	=48
1r	4c\]	4e\]	2r
.	4B\	4d\	.
.	4A/	4c\	2.cc\
.	4G/	4B\	.
1r	2A/	2c\	.
.	.	.	4b\
.	2D/	[2d\	4a/
.	.	.	4g/
=49	=49	=49	=49
2r	2r	2d\]	2a/
2D\	2A/	2f\	2d/
2D\	2A/	2f\	1r
2E\	2G/	2e\	.
=50	=50	=50	=50
1F	1A	2.e\	1r
.	.	4d\	.
2E\	2B\	1e	2r
2C/	[2c\	.	2a/
=51	=51	=51	=51
2D\	4c\]	1r	2a/
.	4B\	.	.
4C/	4A/	.	2b\
4BB/	4G/	.	.
4AA/	4A/	1r	1cc
4GG/	4G/	.	.
2AA/	2F#i/	.	.
=52	=52	=52	=52
1GG	1G	2r	2b\
.	.	2d\	2g/
2r	2r	2f\	2a/
2GG/	2G/	4e\	4g/
.	.	4d\	4f/
=53	=53	=53	=53
1C	1G	4c\	4e/
.	.	4B\	4d/
.	.	2c\	2e/
[1GGl	[1Gl	2B\	2d/
.	.	2B\	2d/
=54	=54	=54	=54
0GG]	0G]	1d	1g
.	.	1Bl	1dl
!!LO:LB:i:g=z
=55||	=55||	=55||	=55||
*>B	*>B	*>B	*>B
*clefF4	*clefGv2	*clefGv2	*clefG2
*k[]	*k[]	*k[]	*k[]
*M2/1	*M2/1	*M2/1	*M2/1
*met(C|)	*met(C|)	*met(C|)	*met(C|)
!!section: Et incarnatus est
!!!OMD: Et incarnatus est
0r	0r	1B	0r
.	.	2G/	.
.	.	2A/	.
=56	=56	=56	=56
1E	0r	1B	0r
2C/	.	1c	.
2D\	.	.	.
=57	=57	=57	=57
1E	0r	1B	0r
1F	.	2r	.
.	.	[2d\	.
=58	=58	=58	=58
1E	0r	2d\]	0r
.	.	2c\	.
2r	.	2B\	.
[2G\	.	[2e\	.
=59	=59	=59	=59
2G\]	0r	4e\]	0r
.	.	4B\	.
2F\	.	2d\	.
2E\	.	1c	.
[2A\	.	.	.
=60	=60	=60	=60
4A\]	0r	2.B\	0r
4E\	.	.	.
2G\	.	.	.
.	.	4c\	.
1F	.	4d\	.
.	.	4c\	.
.	.	4B\	.
.	.	4A/	.
=61	=61	=61	=61
[0E	1B	0G	0r
.	2G/	.	.
.	2A/	.	.
=62	=62	=62	=62
0E]	1B	0r	1b
.	1c	.	2g/
.	.	.	2a/
=63	=63	=63	=63
0r	2B\	1r	0b
.	2.d\	.	.
.	.	1G	.
.	4c\	.	.
.	[2B\	.	.
=64	=64	=64	=64
0r	2B\]	2E/	1cc
.	2A/	2F/	.
.	1B	1G	2b\
.	.	.	[2dd\
=65	=65	=65	=65
0r	1G	1B	4dd\]
.	.	.	4cc\
.	.	.	1b
.	2E/	1c	.
.	2F/	.	2a/
=66	=66	=66	=66
1E	1G	1B	2b\
.	.	.	2.e/
2C/	1A	1c	.
.	.	.	4c/
2D\	.	.	[2f/
=67	=67	=67	=67
2E\	1G	2B\	2f/]
2E\	.	2G/	1e
1F	1r	1A	.
.	.	.	2d/
=68	=68	=68	=68
0E	1B	1G	1e
.	2G/	1r	1r
.	2A/	.	.
=69	=69	=69	=69
0r	1B	1G	1b
.	1c	2E/	2g/
.	.	2F/	2a/
=70	=70	=70	=70
1E	2B\	2G/	1b
.	2G/	2g\	.
2C/	1A	2e\	1cc
2D\	.	2f\	.
=71	=71	=71	=71
1E	1G	2g\	2b\
.	.	2e\	2g/
1F	1r	2c\	2a/
.	.	2d\	2f/
=72	=72	=72	=72
1E	2r	0e	2g/
.	2.G/	.	2.b\
1r	.	.	.
.	8A/L	.	4cc\
.	8B/J	.	.
.	2c\	.	2a/
=73	=73	=73	=73
0r	2B\	2r	2b\
.	2.G/	2.B\	2.e/
.	4A/	4c\	4f/
.	2F/	2A/	2d/
=74	=74	=74	=74
1E	1G	1B	2e/
.	.	.	1g
2C/	1r	1r	.
2D\	.	.	[2f/
=75	=75	=75	=75
1E	2r	0r	4f/]
.	.	.	4e/
.	2.B\	.	1e
1F	.	.	.
.	4c\	.	.
.	2A/	.	2d/
=76	=76	=76	=76
1E	1G	1B	1e
1r	1r	2G/	1r
.	.	2A/	.
=77	=77	=77	=77
[0El	[0Gl	1B	[0el
.	.	1c	.
=78	=78	=78	=78
0E]	0G]	0Bl	0e]
!!LO:LB:i:g=z
=79||	=79||	=79||	=79||
*>C	*>C	*>C	*>C
*clefF4	*clefGv2	*clefGv2	*clefG2
*k[]	*k[]	*k[]	*k[]
*M2/1	*M2/1	*M2/1	*M2/1
*met(C|)	*met(C|)	*met(C|)	*met(C|)
!!section: Crucifixus
!!!OMD: Crucifixus
0r	0r	0r	1e
.	.	.	2g/
.	.	.	2g/
=80	=80	=80	=80
0r	1E	0r	2.g/
.	.	.	8f/L
.	.	.	8e/J
.	2G/	.	2d/
.	2G/	.	[2g/
=81	=81	=81	=81
0r	1G	0r	4g/]
.	.	.	4a/
.	.	.	4b\
.	.	.	4cc\
.	2G/	.	2b\
.	2E/	.	2g/
=82	=82	=82	=82
1r	2F/	0r	2a/
.	2E/	.	2.cc\
1AA	1F	.	.
.	.	.	4b\
.	.	.	4b\
.	.	.	4a/
=83	=83	=83	=83
1.GG	0G	2r	1b
.	.	2B\	.
.	.	2d\	2r
2GG/	.	2d\	2b\
=84	=84	=84	=84
1GG	0r	2.d\	2dd\
.	.	.	2dd\
.	.	8c\L	.
.	.	8B\J	.
2.D\	.	2A/	2.dd\
.	.	[2d\	.
4E\	.	.	8cc\L
.	.	.	8b\J
=85	=85	=85	=85
2F\	0r	2d\]	2a/
1G	.	2B\	1b
.	.	1c	.
2F#i\	.	.	2a/
=86	=86	=86	=86
1G	0r	1B	2b\
.	.	.	2B/
2r	.	2r	2d/
2GG/	.	2B\	2d/
=87	=87	=87	=87
2GG/	0r	2d\	2.d/
2GG/	.	2d\	.
.	.	.	8c/L
.	.	.	8B/J
2.D\	.	2.d\	2A/
.	.	.	[2d/
4E\	.	8c\L	.
.	.	8B\J	.
=88	=88	=88	=88
2F\	0r	2A/	2d/]
1G	.	1B	2B/
.	.	.	1c
2F#i\	.	2A/	.
=89	=89	=89	=89
1.G	2r	1B	1B
.	2B\	.	.
.	[1B	2r	1r
2E\	.	2B\	.
=90	=90	=90	=90
[0E	2B\]	1.B	1r
.	2A/	.	.
.	2G/	.	1b
.	2F/	2A/	.
=91	=91	=91	=91
0E_	1E	2G/	1.b
.	.	2F/	.
.	1B	2E/	.
.	.	2e\	2a/
=92	=92	=92	=92
0E_	1.B	1.e	2g/
.	.	.	2f/
.	.	.	1e
.	2A/	2d\	.
=93	=93	=93	=93
0E]	2.G/	2c\	2r
.	.	2B\	2b\
.	4F/	.	.
.	[1E	1B	[1b
=94	=94	=94	=94
0r	0E_	1.e	2b\]
.	.	.	2a/
.	.	.	2g/
.	.	2d\	2f/
=95	=95	=95	=95
2r	1E]	2c\	1.e
2E\	.	2B\	.
[1E	1G	1B	.
.	.	.	2d/
=96	=96	=96	=96
2E\]	1G	1.e	2c/
2D\	.	.	2B/
2C/	1G	.	[1e
2BB/	.	2d\	.
=97	=97	=97	=97
1AA	1A	2.c\	2e/]
.	.	.	2f/
.	.	4B\	.
[1E	2G/	2B\	2g/
.	[2c\	2E/	2a/
=98	=98	=98	=98
2E\]	2c\]	0e	1b
2D\	1B	.	.
2.C/	.	.	1cc
.	2A/	.	.
4BB/	.	.	.
=99	=99	=99	=99
1BB	0B	1d	1dd
[1E	.	1g	2b\
.	.	.	[2b\
=100	=100	=100	=100
1E]	0r	2f\	2b\]
.	.	1e	4a/
.	.	.	4g/
1F	.	.	1a
.	.	2d\	.
=101	=101	=101	=101
0E	1.B	1e	0g
.	.	2r	.
.	2B\	2E/	.
=102	=102	=102	=102
0r	1B	2E/	2r
.	.	2E/	2g/
.	1B	2G/	2g/
.	.	2G/	2g/
=103	=103	=103	=103
0r	1c	1F	1a
.	1c	1E	2.g/
.	.	.	4a/
=104	=104	=104	=104
2r	0B	0r	1b
2E\	.	.	.
2E\	.	.	2r
2E\	.	.	2g/
=105	=105	=105	=105
2G\	2r	0r	2g/
2G\	2B\	.	2g/
2F\	2c\	.	2a/
2F\	2c\	.	2a/
=106	=106	=106	=106
1E	2c\	0r	2g/
.	2c\	.	4g/
.	.	.	4a/
1r	2d\	.	1b
.	2d\	.	.
=107	=107	=107	=107
0r	1B	0r	2r
.	.	.	2g/
.	2c\	.	2g/
.	2c\	.	2g/
=108	=108	=108	=108
0r	2c\	0r	2g/
.	2c\	.	2g/
.	2c\	.	2a/
.	2d\	.	[2b\
=109	=109	=109	=109
0r	2.e\	0r	4b\]
.	.	.	4a/
.	.	.	4g/
.	4d\	.	4f/
.	4c\	.	2e/
.	4B\	.	.
.	2A/	.	2e/
=110	=110	=110	=110
0r	2A/	0r	2e/
.	2A/	.	2e/
.	2A/	.	2e/
.	2A/	.	2e/
=111	=111	=111	=111
0r	2A/	0r	2f/
.	2B\	.	2.g/
.	2.c\	.	.
.	.	.	4f/
.	.	.	4e/
.	4B\	.	4d/
=112	=112	=112	=112
0r	2A/	0r	2c/
.	2G/	.	1B
.	1E	.	.
.	.	.	[2e/
=113	=113	=113	=113
0r	1e	0r	4e/]
.	.	.	4f/
.	.	.	4g/
.	.	.	4a/
.	2e\	.	2b\
.	2e\	.	[2cc\
=114	=114	=114	=114
0r	2c\	0r	4cc\]
.	.	.	4b\
.	2d\	.	1a
.	1B	.	.
.	.	.	2g#i/
=115	=115	=115	=115
1r	0A	1e	0a
1A	.	2e\	.
.	.	2e\	.
=116	=116	=116	=116
2A\	0r	1c	0r
2A\	.	.	.
2F\	.	2d\	.
2G\	.	4d\	.
.	.	4c\	.
=117	=117	=117	=117
4G\	0r	4B\	1r
4F\	.	4A/	.
4E\	.	2B\	.
4D\	.	.	.
2E\	.	2E/	1cc
2AA/	.	[2E/	.
=118	=118	=118	=118
0AA	0r	2E/]	2cc\
.	.	2e\	2cc\
.	.	2e\	2cc\
.	.	2e\	[2cc\
=119	=119	=119	=119
0r	0r	2e\	2cc\]
.	.	1f	2a/
.	.	.	2a/
.	.	2d\	[2b\
=120	=120	=120	=120
0r	2r	2e\	4b\]
.	.	.	4a/
.	2c\	4e\	4g/
.	.	4d\	4f/
.	4c\	4c\	2g/
.	4d\	4B\	.
.	2e\	[2c\	2c/
=121	=121	=121	=121
2r	2A/	2c\]	1c
2A\	2A/	2A/	.
2F\	2d\	2A/	1r
2G\	4d\	2r	.
.	4c\	.	.
=122	=122	=122	=122
4G\	4B\	1r	0r
4F\	4A/	.	.
4E\	2B\	.	.
4D\	.	.	.
2E\	2E/	2r	.
2AA/	[2E/	2e\	.
=123	=123	=123	=123
1AA	2E/]	1e	2r
.	2A/	.	2cc\
1r	2F/	2f\	2a/
.	[2G/	[2d\	[2b\
=124	=124	=124	=124
1r	4G/]	4d\]	4b\]
.	4F/	4A/	4a/
.	4E/	2c\	4g/
.	4D/	.	4f/
2r	1E	2B\	2g/
2AA/	.	2A/	2c/
=125	=125	=125	=125
2AA/	2r	2A/	2c/
2AA/	2E/	2A/	2c/
1AA	2E/	2A/	2c/
.	2E/	2A/	2c/
=126	=126	=126	=126
2GG/	1E	2B\	2B/
2.C/	.	2.e\	1c
.	2E/	.	.
4BB/	.	4d\	.
2GG/	2E/	2B\	[2B/
=127	=127	=127	=127
1AA	1E	1c	2B/]
.	.	.	2A/
2r	1E	2B\	2B/
2AA/	.	[2e\	2c/
=128	=128	=128	=128
2GG/	1E	4e\]	2B/
.	.	4d\	.
2AA/	.	4c\	1e
.	.	4B\	.
1D	1F	2.A/	.
.	.	.	2d/
.	.	4G/	.
=129	=129	=129	=129
1r	1E	0B	0e
2r	2r	.	.
2G\	2B\	.	.
=130	=130	=130	=130
1G	1B	0r	0r
1F	1A	.	.
=131	=131	=131	=131
0E	0G	1r	1r
.	.	2r	2r
.	.	2B\	2b\
=132	=132	=132	=132
0r	0r	1B	1b
.	.	1d	1a
=133	=133	=133	=133
0E	2.G/	0e	0g
.	4A/	.	.
.	2B\	.	.
.	[2c\	.	.
=134	=134	=134	=134
2.E\	2c\]	1.e	2.g/
.	1B	.	.
4F\	.	.	4a/
2G\	.	.	2b\
[2A\	2A/	2e\	[2cc\
=135	=135	=135	=135
2A\]	1B	2d\	2cc\]
2G\	.	2d\	2b\
2E\	1r	1c	2.b\
2F\	.	.	.
.	.	.	4a/
=136	=136	=136	=136
2G\	1d	1B	1b
2G\	.	.	.
2.G\	2B\	1r	1r
.	2c\	.	.
4F\	.	.	.
=137	=137	=137	=137
2E\	2c\	0r	0r
2D\	1B	.	.
1C	.	.	.
.	2A/	.	.
=138	=138	=138	=138
0BB	1B	1.d	1.b
.	1B	.	.
.	.	2d\	2b\
=139	=139	=139	=139
1.BB	2B\	1d	1b
.	2B\	.	.
.	[1d	1d	1b
2BB/	.	.	.
=140	=140	=140	=140
1D	2d\]	0f	0a
.	4c\	.	.
.	4B\	.	.
1D	2A/	.	.
.	2A/	.	.
=141	=141	=141	=141
1.E	2c\	1.e	1.g
.	2c\	.	.
.	[1B	.	.
[2E\	.	2c\	2e/
=142	=142	=142	=142
2E\]	1B]	2e\	2g/
2D\	.	2f\	2f/
1E	1B	2g\	1e
.	.	2G/	.
=143	=143	=143	=143
0E	2B\	2G/	2r
.	2B\	2G/	2g/
.	1B	2E/	2g/
.	.	[2G/	2g/
=144	=144	=144	=144
1r	0B	4G/]	2e/
.	.	4F/	.
.	.	1E	2.g/
2r	.	.	.
.	.	.	4f/
2G\	.	2E/	[2e/
=145	=145	=145	=145
2G\	1B	2E/	2e/]
2G\	.	2G/	2d/
2E\	2B\	2G/	1e
2E\	2B\	2G/	.
=146	=146	=146	=146
2.G\	0B	2E/	1r
.	.	2E/	.
4F\	.	.	.
1E	.	1G	2r
.	.	.	2e/
=147	=147	=147	=147
2D\	1B	2r	2f/
1E	.	1G	2g/
.	2B\	.	2e/
2E\	2B\	2G/	[2e/
=148	=148	=148	=148
2G\	2B\	2E/	2e/]
2G\	2B\	1G	2d/
2E\	[1B	.	2e/
2E\	.	4G/	[2g/
.	.	4A/	.
=149	=149	=149	=149
1G	1B]	4B\	4g/]
.	.	4c\	4a/
.	.	1d	4b\
.	.	.	4cc\
2D\	1B	.	2dd\
[2G\	.	2d\	[2b\
=150	=150	=150	=150
4G\]	1B	2e\	2b\]
4F\	.	.	.
2D\	.	2f\	1a
1E	1B	1e	.
.	.	.	2g#i/
=151	=151	=151	=151
0AA	0A	0c	0a
=152	=152	=152	=152
*M3/1	*M3/1	*M3/1	*M3/1
*met(3)	*met(3)	*met(3)	*met(3)
1r	1B	0.r	0.r
1r	1B	.	.
1E	1c	.	.
=153	=153	=153	=153
1E	2B\	0.r	0.r
.	2G/	.	.
1F	1A	.	.
2E\	2G/	.	.
2C/	2E/	.	.
=154	=154	=154	=154
1D	1F	0.r	0.r
2C/	0E	.	.
2AA/	.	.	.
1C	.	.	.
=155	=155	=155	=155
0BB	0.r	1r	1b
.	.	1r	1b
1r	.	1e	1cc
=156	=156	=156	=156
0.r	0.r	1e	2b\
.	.	.	2g/
.	.	1f	1a
.	.	2e\	2g/
.	.	2c\	2e/
=157	=157	=157	=157
0.r	0.r	1d	1f
.	.	2c\	0e
.	.	2A/	.
.	.	1c	.
=158	=158	=158	=158
1BB	1D	0B	1b
1BB	1D	.	1b
1AA	1E	1r	1cc
=159	=159	=159	=159
1BB	2D/	1d	2b\
.	1G	.	2g/
1D	.	1d	1a
.	2F/	.	.
1E	1G	2B\	2g/
.	.	2c\	2e/
=160	=160	=160	=160
2D\	1A	1d	1f
1D	.	.	.
.	2G/	2B\	2e/
2C/	2E/	2c\	1e
1D	1F	1A	.
.	.	.	2d/
=161	=161	=161	=161
0.r	0.E	1e	0e
.	.	2d\	.
.	.	2B\	.
.	.	1c	1r
=162	=162	=162	=162
1BB	0.r	0B	1d
1BB	.	.	1d
1BB	.	1B	1d
=163	=163	=163	=163
1.E	1B	[0.G	0g
.	1B	.	.
2D\	.	.	.
2C/	1c	.	1r
4BB/	.	.	.
4AA/	.	.	.
=164	=164	=164	=164
0GG	0B	0G]	1.g
.	.	.	2f/
1AA	1r	1r	2e/
.	.	.	4d/
.	.	.	4c/
=165	=165	=165	=165
2GG/	2B\	0.r	2B/
1AA	1c	.	1e
2BB/	1B	.	2d/
1C	.	.	2.c/
.	2A/	.	.
.	.	.	4B/
=166	=166	=166	=166
2BB/	2B\	0.r	2b\
2AA/	1e	.	1cc
2C/	.	.	.
2D\	2d\	.	1b
2E\	1c	.	.
2F\	.	.	2a/
=167	=167	=167	=167
*M2/1	*M2/1	*M2/1	*M2/1
*met(C|)	*met(C|)	*met(C|)	*met(C|)
[0G	1B	1d	0b
.	2r	2.d\	.
.	2d\	.	.
.	.	4c\	.
=168	=168	=168	=168
0G]	2.d\	2.B\	2r
.	.	.	2dd\
.	4c\	4A/	.
.	2B\	2.G/	2.dd\
.	2A/	.	.
.	.	4A/	4cc\
=169	=169	=169	=169
2r	2.G/	2B\	2.b\
2E\	.	2E/	.
.	4F/	.	4a/
2.E\	1E	[1G	[1g
4D\	.	.	.
=170	=170	=170	=170
2C/	1r	1G]	1g]
2BB/	.	.	.
1AA	2r	1A	1cc
.	2e\	.	.
=171	=171	=171	=171
0r	2.e\	2r	2b\
.	.	1e	1a
.	4d\	.	.
.	2c\	.	.
.	2B\	2d\	2g/
=172	=172	=172	=172
1A	1A	2e\	2a/
.	.	2A/	2cc\
2G\	1r	2e\	2b\
2F\	.	2A/	[2cc\
=173	=173	=173	=173
1A	1c	1.e	2cc\]
.	.	.	4b\
.	.	.	4a/
2E\	4B\	.	2g/
.	4G/	.	.
2AA/	2A/	2e\	2cc\
=174	=174	=174	=174
1E	2B\	0e	2b\
.	2E/	.	2g/
1r	2c\	.	2a/
.	4B\	.	2b\
.	4G/	.	.
=175	=175	=175	=175
1r	2A/	0r	4e/
.	.	.	4f/
.	1B	.	4g/
.	.	.	4a/
2r	.	.	2b\
2F\	2A/	.	[2cc\
=176	=176	=176	=176
2E\	2G/	1r	4cc\]
.	.	.	4b\
2C/	2A/	.	1a
2D\	1B	2r	.
2E\	.	[2e\	2g#i/
=177	=177	=177	=177
2AA/	1A	2e\]	2a/
2A\	.	2A/	2cc\
4G\	2r	2e\	4b\
4E\	.	.	4g/
2F\	[2c\	2A/	2a/
=178	=178	=178	=178
1E	2c\]	1e	4g/
.	.	.	4a/
.	4B\	.	4b\
.	4G/	.	4cc\
1D	2A/	1f	2dd\
.	[2d\	.	[2b\
=179	=179	=179	=179
0E	2d\]	0e	2b\]
.	4c\	.	1a
.	4A/	.	.
.	1B	.	.
.	.	.	2g#i/
=180	=180	=180	=180
0AAl	0Al	0cl	0al
==	==	==	==
*-	*-	*-	*-
!!!RDF**kern: l=long note in original notation
!!!RDF**kern: i=editorial accidental
!!!RDF**kern: V=start of tuplet marker
!!!RDF**kern: Z=end of tuplet marker
!!!ENC:	ENCODER NAME
!!!END:	2012/01/21/
!!!EED:	Jesse Rodin
!!!EEV:	2012/08/03/
!!attribution-level@Jos: 5 (doubtful)
!!!ONB:	Translated from MusicXML and edited on 2012/08/03/ by Craig Sapp
!!muse2ps: T^@{OPR}^u^@{ONM}{. }@{OTL}^C^La Rue/Josquin?\n@{SCT}^i2I150v85,85,85,150Q16
